X:1
T:Kitty Tyrrell [1]
M:3/4
L:1/8
R:Air
Q:"Slow"
B:J. Clinton – Gems of Ireland: 200 Airs (1841, No. 24, p. 12)
Z:AK/Fiddler’s Companion
K:C
(c>A)|(G2A2).c2|c4 (c>d)|(e2c'2).b2|a4 (c'>a)|(agfedc)|
c4 d2|e2 (fe) {e}(d.c)|{B}A4 (c>A)|(G2A2) .c2|.c4 (c>d)|
(ec'3)-b2|a4 (c'>a)|(agfe) {e}(d>c)|(c2A) z(c>d)|(e2c2).c2|c4||

